images/sprite/menu-circle.svg

<svg width="116" height="116" viewBox="0 0 116 116" xmlns="http://www.w3.org/2000/svg" fill="currentColor">
<path d="M102.439 66.119L108.519 66.8132L103.804 63.2091L103.867 62.6608L109.248 60.2293L103.205 59.5274L103.337 58.3831L111.681 59.3522L111.568 60.3296L105.299 63.1291L110.765 67.2431L110.651 68.2206L102.306 67.2634L102.439 66.119Z"/>
<path d="M100.757 75.5275L99.7656 75.2015L101.669 69.4103L109.649 72.0334L107.798 77.665L106.806 77.339L108.283 72.8474L105.832 72.0417L104.516 76.0431L103.547 75.7246L104.863 71.7232L102.286 70.8763L100.757 75.5275Z" />
<path d="M103.226 86.6469L95.8564 82.6167L96.4321 81.5639L99.717 83.3601L102.032 79.1276L98.7466 77.3313L99.3223 76.2785L106.692 80.3086L106.117 81.3615L102.947 79.6285L100.633 83.861L103.802 85.594L103.226 86.6469Z" />
<path d="M96.6568 95.027C96.1131 95.6247 95.4841 96.0367 94.7699 96.263C94.0617 96.4947 93.3411 96.5259 92.6082 96.3567C91.8758 96.1988 91.2079 95.8453 90.6043 95.2962C90.0007 94.7471 89.5827 94.1127 89.3505 93.3931C89.1188 92.6849 89.0819 91.9646 89.2399 91.2322C89.4037 90.5052 89.7575 89.8429 90.3012 89.2452C90.8073 88.689 91.3889 88.2934 92.046 88.0584C92.7032 87.8235 93.374 87.7578 94.0584 87.8614C94.7429 87.9649 95.3816 88.2377 95.9745 88.6797L97.0081 87.5435L94.2564 85.0402L95.0558 84.1615L101.269 89.814L100.47 90.6928L97.807 88.2703L96.7653 89.4154C97.2327 89.9596 97.5444 90.5621 97.7002 91.223C97.8507 91.8898 97.8367 92.5531 97.6584 93.2128C97.4859 93.8778 97.1521 94.4826 96.6568 95.027ZM91.1001 89.972C90.7125 90.3981 90.4632 90.8742 90.3521 91.4005C90.2416 91.9381 90.278 92.4687 90.4614 92.9923C90.6393 93.5219 90.9561 93.994 91.4118 94.4085C91.8674 94.823 92.3673 95.0939 92.9113 95.2211C93.4499 95.3542 93.9786 95.3377 94.4975 95.1716C95.0168 95.0168 95.4703 94.7263 95.8579 94.3003C96.2401 93.8801 96.4838 93.4042 96.5889 92.8726C96.7 92.3463 96.6665 91.8184 96.4886 91.2888C96.3052 90.7651 95.9858 90.296 95.5301 89.8815C95.0744 89.467 94.5773 89.1932 94.0387 89.0601C93.4946 88.9329 92.963 88.9467 92.4436 89.1015C91.9302 89.2617 91.4823 89.5518 91.1001 89.972Z" />
<path d="M74.6516 100.031L77.3369 105.53L77.8389 99.6161L78.3354 99.3749L83.2791 102.603L80.6204 97.1307L81.6566 96.6272L85.3274 104.183L84.4424 104.613L78.7106 100.834L78.1821 107.654L77.2971 108.084L73.6154 100.534L74.6516 100.031Z" />
<path d="M65.8684 103.665L65.6068 102.654L71.5083 101.127L73.613 109.259L67.8741 110.744L67.6125 109.734L72.1897 108.549L71.5433 106.051L67.4656 107.107L67.21 106.119L71.2877 105.064L70.6082 102.438L65.8684 103.665Z" />
<path d="M57.9158 111.739L57.3006 103.361L58.4974 103.273L58.7716 107.007L63.5826 106.654L63.3085 102.92L64.5053 102.832L65.1204 111.21L63.9236 111.297L63.6591 107.695L58.848 108.048L59.1125 111.651L57.9158 111.739Z" />
<path d="M47.0785 110.702C46.2821 110.566 45.5962 110.258 45.0208 109.778C44.4441 109.306 44.0297 108.716 43.7775 108.007C43.5161 107.305 43.4541 106.552 43.5917 105.747C43.7292 104.943 44.0385 104.249 44.5197 103.666C44.9917 103.089 45.5787 102.67 46.2808 102.409C46.9815 102.155 47.7301 102.097 48.5266 102.233C49.2678 102.36 49.9144 102.637 50.4663 103.064C51.0182 103.491 51.4349 104.021 51.7163 104.653C51.9978 105.286 52.1119 105.971 52.0589 106.708L53.5729 106.967L54.1998 103.3L55.3708 103.501L53.9551 111.78L52.7841 111.58L53.3909 108.032L51.865 107.771C51.6583 108.458 51.3185 109.045 50.8456 109.532C50.3648 110.018 49.7985 110.364 49.1466 110.569C48.4933 110.782 47.804 110.826 47.0785 110.702ZM48.3446 103.297C47.7768 103.2 47.2413 103.247 46.7381 103.437C46.2257 103.633 45.7982 103.95 45.4558 104.386C45.1054 104.821 44.8783 105.342 44.7745 105.95C44.6707 106.557 44.7117 107.124 44.8976 107.651C45.0755 108.176 45.3742 108.613 45.7936 108.961C46.2038 109.315 46.6928 109.54 47.2605 109.637C47.8204 109.733 48.3526 109.682 48.8572 109.484C49.3604 109.294 49.7872 108.982 50.1375 108.547C50.48 108.11 50.7031 107.588 50.807 106.981C50.9108 106.374 50.8737 105.808 50.6957 105.282C50.5099 104.755 50.2118 104.315 49.8017 103.96C49.3901 103.614 48.9044 103.393 48.3446 103.297Z" />
<path d="M31.0804 94.824L27.8815 100.041L33.1409 97.2908L33.611 97.5802L33.5407 103.484L36.7309 98.3037L37.7119 98.9077L33.3072 106.06L32.4693 105.544L32.5815 98.6797L26.5429 101.895L25.7051 101.379L30.0995 94.2199L31.0804 94.824Z" />
<path d="M23.3007 89.3564L24.0144 88.5944L28.4635 92.7617L22.7212 98.8924L18.3947 94.84L19.1083 94.0781L22.5591 97.3102L24.3228 95.4271L21.2487 92.5478L21.9459 91.8033L25.0201 94.6827L26.874 92.7034L23.3007 89.3564Z" />
<path d="M12.2126 87.0077L18.951 81.9923L19.6675 82.955L16.6641 85.1904L19.5444 89.0602L22.5477 86.8247L23.2642 87.7873L16.5259 92.8027L15.8094 91.8401L18.7069 89.6835L15.8266 85.8137L12.9291 87.9704L12.2126 87.0077Z"/>
<path d="M7.3472 77.5348C7.03245 76.7906 6.922 76.0469 7.01587 75.3036C7.10237 74.5634 7.37603 73.8961 7.83685 73.3016C8.28719 72.7029 8.88813 72.2446 9.63967 71.9267C10.3912 71.6089 11.1423 71.4953 11.893 71.5861C12.6331 71.6726 13.3026 71.941 13.9013 72.3913C14.4927 72.8448 14.9457 73.4436 15.2605 74.1878C15.5534 74.8804 15.6688 75.5742 15.6067 76.2693C15.5446 76.9644 15.3231 77.601 14.9421 78.1791C14.5612 78.7571 14.0459 79.2226 13.3961 79.5757L13.9944 80.9903L17.4206 79.5412L17.8833 80.6353L10.1469 83.9076L9.68411 82.8134L12.9997 81.411L12.3967 79.9853C11.7067 80.1816 11.029 80.212 10.3636 80.0765C9.69516 79.9336 9.09882 79.643 8.57462 79.2046C8.04305 78.7692 7.63391 78.2127 7.3472 77.5348ZM14.2658 74.6085C14.0414 74.078 13.7136 73.652 13.2823 73.3306C12.8406 73.005 12.3435 72.8157 11.7913 72.7626C11.2358 72.7022 10.6745 72.792 10.1071 73.032C9.5398 73.2719 9.08438 73.6122 8.74089 74.0528C8.39428 74.4861 8.18765 74.973 8.12101 75.5137C8.04388 76.0501 8.11751 76.5836 8.34189 77.1141C8.56315 77.6372 8.8931 78.0579 9.33174 78.3762C9.763 78.6976 10.2563 78.8885 10.8117 78.9489C11.364 79.0019 11.9239 78.9085 12.4912 78.6685C13.0585 78.4285 13.5155 78.0919 13.8621 77.6587C14.2056 77.2181 14.4159 76.7296 14.493 76.1931C14.5628 75.6598 14.4871 75.1316 14.2658 74.6085Z"/>
<path d="M12.0537 55.5144L5.93504 55.6445L11.0927 58.5816L11.1033 59.1335L6.09887 62.2666L12.1817 62.1492L12.204 63.301L3.80553 63.4631L3.78654 62.4793L9.62182 58.862L3.65222 55.5206L3.63323 54.5368L12.0314 54.3627L12.0537 55.5144Z" />
<path d="M12.4778 45.7656L13.504 45.9573L12.3848 51.9497L4.12759 50.4074L5.21598 44.5802L6.24223 44.7719L5.37416 49.4195L7.9103 49.8932L8.68364 45.7528L9.6863 45.9401L8.91296 50.0805L11.5789 50.5784L12.4778 45.7656Z" />
<path d="M8.42822 35.3449L16.2817 38.3254L15.8559 39.4473L12.3555 38.1189L10.6439 42.629L14.1443 43.9574L13.7185 45.0793L5.86503 42.0989L6.29081 40.977L9.66779 42.2586L11.3794 37.7484L8.00244 36.4668L8.42822 35.3449Z"/>
<path d="M13.7776 26.1464C14.236 25.4811 14.8039 24.9882 15.4811 24.668C16.1518 24.3432 16.8617 24.2153 17.6106 24.2845C18.3576 24.3425 19.067 24.603 19.739 25.066C20.4109 25.529 20.9103 26.1013 21.2372 26.7832C21.562 27.4539 21.6954 28.1627 21.6374 28.9096C21.5728 29.652 21.3112 30.3559 20.8528 31.0212C20.4261 31.6405 19.903 32.1107 19.2834 32.4318C18.6638 32.753 18.0079 32.9083 17.3157 32.8977C16.6236 32.8871 15.954 32.7027 15.3071 32.3444L14.4356 33.6092L17.4989 35.7198L16.8249 36.6981L9.90776 31.9322L10.5818 30.9539L13.5463 32.9965L14.4246 31.7217C13.8882 31.2453 13.4983 30.6901 13.2551 30.0562C13.0163 29.4157 12.941 28.7566 13.029 28.0789C13.1105 27.3966 13.36 26.7525 13.7776 26.1464ZM19.9635 30.4085C20.2903 29.9342 20.4733 29.4288 20.5126 28.8924C20.5498 28.3448 20.4424 27.8239 20.1903 27.3297C19.9428 26.8288 19.5654 26.4036 19.0581 26.0541C18.5509 25.7046 18.0192 25.5035 17.463 25.4506C16.9114 25.3911 16.3896 25.4785 15.8979 25.7129C15.404 25.9361 14.9937 26.2849 14.6669 26.7592C14.3447 27.2269 14.1672 27.7313 14.1345 28.2722C14.0952 28.8086 14.1993 29.3272 14.4469 29.8281C14.6989 30.3224 15.0786 30.7443 15.5859 31.0938C16.0931 31.4433 16.6226 31.6477 17.1742 31.7072C17.7304 31.7601 18.2554 31.6749 18.7492 31.4517C19.2364 31.224 19.6412 30.8762 19.9635 30.4085Z"/>
<path d="M34.8579 18.1851L31.4498 13.1018L31.7565 19.0292L31.2974 19.3356L25.9607 16.8097L29.3388 21.8697L28.3807 22.5093L23.7166 15.5232L24.535 14.9768L30.7274 17.9415L30.3235 11.1123L31.1419 10.5659L35.816 17.5454L34.8579 18.1851Z" />
<path d="M42.9685 13.397L43.3643 14.363L37.7236 16.6747L34.5383 8.90203L40.0236 6.65411L40.4195 7.62014L36.0446 9.41301L37.0229 11.8003L40.9204 10.2031L41.3071 11.1469L37.4097 12.7441L38.4381 15.2536L42.9685 13.397Z" />
<path d="M49.7372 4.27812L51.4683 12.4978L50.2941 12.7451L49.5225 9.08147L44.8021 10.0756L45.5736 13.7392L44.3994 13.9865L42.6683 5.76684L43.8425 5.51955L44.5869 9.05402L49.3074 8.05988L48.563 4.52541L49.7372 4.27812Z" />
<path d="M60.6071 3.78902C61.4147 3.81708 62.1357 4.03025 62.7702 4.42853C63.4051 4.81881 63.895 5.34814 64.24 6.01652C64.5932 6.67719 64.7557 7.41528 64.7274 8.23079C64.699 9.04629 64.4856 9.77532 64.087 10.4179C63.6968 11.0527 63.1713 11.5467 62.5106 11.9C61.8502 12.2453 61.1163 12.4039 60.3088 12.3758C59.5572 12.3497 58.8793 12.1621 58.2751 11.8129C57.6708 11.4637 57.1868 10.9946 56.8231 10.4056C56.4593 9.81661 56.2542 9.15309 56.2078 8.41503L54.6728 8.36169L54.5436 12.0794L53.3563 12.0382L53.648 3.64325L54.8353 3.68451L54.7103 7.28234L56.2573 7.3361C56.37 6.62758 56.628 6.00016 57.0312 5.45384C57.4424 4.90779 57.9572 4.48941 58.5757 4.19872C59.1944 3.90003 59.8716 3.76346 60.6071 3.78902ZM60.3463 11.2965C60.9219 11.3165 61.4463 11.1986 61.9195 10.9429C62.4009 10.6795 62.782 10.3085 63.0628 9.82994C63.3516 9.35169 63.5067 8.80474 63.5281 8.18911C63.5495 7.57348 63.4327 7.01709 63.1779 6.51994C62.931 6.02307 62.5764 5.63052 62.1141 5.34229C61.6601 5.04635 61.1453 4.88837 60.5696 4.86837C60.002 4.84864 59.4814 4.97064 59.008 5.23436C58.5348 5.49008 58.1538 5.85707 57.8651 6.33533C57.5843 6.81386 57.4332 7.36095 57.4118 7.97658C57.3904 8.5922 57.5031 9.14846 57.75 9.64533C58.0049 10.1425 58.3594 10.539 58.8134 10.835C59.2676 11.1229 59.7786 11.2768 60.3463 11.2965Z" />
<path d="M78.8958 17.3739L81.3736 11.7779L76.526 15.2025L76.0217 14.978L75.3074 9.11703L72.8333 14.6752L71.7808 14.2068L75.1968 6.53271L76.0958 6.93287L76.896 13.7516L82.4543 9.76323L83.3532 10.1634L79.9482 17.8423L78.8958 17.3739Z" />
<path d="M87.2588 21.6834L86.6539 22.5343L81.6852 19.0026L86.5518 12.1559L91.3835 15.5903L90.7787 16.4413L86.925 13.7021L85.4303 15.805L88.8634 18.2452L88.2725 19.0766L84.8393 16.6364L83.2681 18.8469L87.2588 21.6834Z" />
<path d="M98.5471 22.4882L92.543 28.3628L91.7037 27.5051L94.3799 24.8867L91.0062 21.4386L88.33 24.057L87.4908 23.1993L93.4949 17.3247L94.3341 18.1824L91.7524 20.7085L95.1261 24.1565L97.7078 21.6305L98.5471 22.4882Z" />
<path d="M104.764 31.3682C105.175 32.0638 105.383 32.7863 105.389 33.5354C105.402 34.2805 105.219 34.9783 104.841 35.6288C104.475 36.2821 103.94 36.8163 103.238 37.2314C102.535 37.6464 101.806 37.8589 101.05 37.8688C100.305 37.8815 99.6054 37.7046 98.9521 37.3379C98.3056 36.9671 97.7769 36.4339 97.366 35.7382C96.9835 35.0908 96.7768 34.4185 96.7459 33.7213C96.715 33.0241 96.8498 32.3637 97.1504 31.7401C97.4511 31.1165 97.8999 30.5865 98.497 30.1502L97.7157 28.8277L94.5128 30.7198L93.9086 29.6969L101.141 25.4245L101.745 26.4474L98.6456 28.2784L99.4329 29.6112C100.091 29.3248 100.758 29.2045 101.436 29.2503C102.117 29.303 102.747 29.5118 103.325 29.8765C103.91 30.2373 104.389 30.7345 104.764 31.3682ZM98.2958 35.1889C98.5888 35.6849 98.9704 36.0634 99.4406 36.3246C99.9217 36.5885 100.44 36.7101 100.994 36.6892C101.552 36.6751 102.097 36.5115 102.627 36.1982C103.158 35.8849 103.564 35.487 103.846 35.0046C104.131 34.5291 104.271 34.019 104.266 33.4742C104.271 32.9323 104.127 32.4134 103.834 31.9175C103.545 31.4284 103.162 31.0554 102.685 30.7983C102.215 30.5371 101.7 30.4136 101.142 30.4276C100.587 30.4485 100.045 30.6156 99.5145 30.9289C98.9841 31.2422 98.576 31.6366 98.2901 32.1121C98.0083 32.5945 97.8648 33.1067 97.8598 33.6486C97.8616 34.1864 98.0069 34.6999 98.2958 35.1889Z" fill=""/>
</svg>

<svg width="116" height="116" viewBox="0 0 116 116" fill="none" xmlns="http://www.w3.org/2000/svg"><path d="M102.439 66.119l6.08.694-4.715-3.604.063-.548 5.381-2.432-6.043-.702.132-1.144 8.344.97-.113.977-6.269 2.8 5.466 4.113-.114.978-8.345-.958.133-1.144zm-1.682 9.409l-.991-.327 1.903-5.79 7.98 2.622-1.851 5.632-.992-.326 1.477-4.492-2.451-.805-1.316 4.001-.969-.318 1.316-4.002-2.577-.847-1.529 4.651zm2.469 11.119l-7.37-4.03.576-1.053 3.285 1.796 2.315-4.232-3.285-1.797.575-1.053 7.37 4.03-.575 1.053-3.17-1.733-2.314 4.233 3.169 1.733-.576 1.053zm-6.569 8.38c-.544.598-1.173 1.01-1.887 1.236a3.961 3.961 0 01-2.162.094c-.732-.158-1.4-.512-2.004-1.06-.603-.55-1.021-1.184-1.254-1.904a4.07 4.07 0 01-.11-2.16c.164-.728.517-1.39 1.061-1.988a4.299 4.299 0 011.745-1.187 4.077 4.077 0 012.012-.197 4.23 4.23 0 011.916.819l1.034-1.137-2.752-2.503.8-.879 6.213 5.653-.799.879-2.663-2.423-1.042 1.145a4.24 4.24 0 01.935 1.808c.15.667.137 1.33-.042 1.99a4.262 4.262 0 01-1.001 1.814zM91.1 89.972a3.028 3.028 0 00-.748 1.428 2.94 2.94 0 00.11 1.592c.177.53.494 1.002.95 1.416a3.33 3.33 0 001.5.813 2.858 2.858 0 001.585-.05c.52-.154.973-.445 1.36-.87.383-.42.627-.897.732-1.428a2.966 2.966 0 00-.1-1.584 3.422 3.422 0 00-.959-1.407c-.456-.415-.953-.689-1.491-.822a3.056 3.056 0 00-1.595.041c-.514.16-.962.45-1.344.871zm-16.448 10.059l2.685 5.499.502-5.914.496-.241 4.944 3.228-2.659-5.472 1.037-.504 3.67 7.556-.885.43-5.731-3.779-.529 6.82-.885.43-3.682-7.55 1.037-.503zm-8.784 3.634l-.261-1.011 5.901-1.527 2.105 8.132-5.739 1.485-.261-1.01 4.577-1.185-.647-2.498-4.077 1.056-.256-.988 4.078-1.055-.68-2.626-4.74 1.227zm-7.952 8.074l-.615-8.378 1.196-.088.275 3.734 4.81-.353-.273-3.734 1.196-.088.615 8.378-1.196.087-.265-3.602-4.811.353.264 3.603-1.196.088zm-10.838-1.037c-.796-.136-1.482-.444-2.057-.924a3.96 3.96 0 01-1.243-1.771c-.262-.702-.324-1.455-.186-2.26.137-.804.447-1.498.928-2.081a4.066 4.066 0 011.76-1.257c.701-.254 1.45-.312 2.247-.176a4.301 4.301 0 011.94.831c.551.427.968.957 1.25 1.589a4.25 4.25 0 01.342 2.055l1.514.259.627-3.667 1.17.201-1.415 8.279-1.17-.2.606-3.548-1.526-.261a4.236 4.236 0 01-1.02 1.761 4.076 4.076 0 01-1.698 1.037 4.261 4.261 0 01-2.069.133zm1.267-7.405a3.027 3.027 0 00-1.607.14 2.94 2.94 0 00-1.282.949c-.35.435-.578.956-.681 1.564a3.343 3.343 0 00.123 1.701c.177.525.476.962.896 1.31.41.354.899.579 1.467.676a2.93 2.93 0 001.596-.153c.503-.19.93-.502 1.28-.937.343-.437.566-.959.67-1.566.104-.607.067-1.173-.111-1.699a3.062 3.062 0 00-.894-1.322 3.01 3.01 0 00-1.457-.663zM31.08 94.824l-3.198 5.217 5.259-2.75.47.29-.07 5.903 3.19-5.18.98.604-4.404 7.152-.838-.516.112-6.864-6.038 3.215-.838-.516 4.395-7.16.98.605zm-7.78-5.468l.714-.762 4.45 4.168-5.743 6.13-4.326-4.052.713-.762 3.451 3.232 1.764-1.883-3.074-2.88.697-.744 3.074 2.88 1.854-1.98-3.573-3.347zm-11.087-2.348l6.738-5.016.716.963-3.003 2.235 2.88 3.87 3.004-2.235.716.962-6.738 5.016-.717-.963 2.898-2.157-2.88-3.87-2.898 2.157-.716-.962zm-4.866-9.473c-.315-.744-.425-1.488-.331-2.231.086-.74.36-1.408.82-2.002.451-.6 1.052-1.057 1.804-1.375.751-.318 1.502-.432 2.253-.34.74.086 1.41.354 2.008.804.592.454 1.045 1.053 1.36 1.797.292.692.408 1.386.346 2.081a4.077 4.077 0 01-.665 1.91 4.232 4.232 0 01-1.546 1.397l.598 1.414 3.427-1.449.462 1.094-7.736 3.273-.463-1.095L13 81.411l-.603-1.426a4.24 4.24 0 01-2.033.091 4.077 4.077 0 01-1.79-.871 4.262 4.262 0 01-1.227-1.67zm6.919-2.926a3.027 3.027 0 00-.984-1.278 2.942 2.942 0 00-1.49-.568 3.343 3.343 0 00-1.685.269c-.567.24-1.023.58-1.366 1.02a2.862 2.862 0 00-.62 1.462 2.96 2.96 0 00.22 1.6c.222.523.552.944.99 1.262a2.97 2.97 0 001.48.573 3.424 3.424 0 001.68-.28 3.425 3.425 0 001.371-1.01c.344-.44.554-.93.631-1.466a3.003 3.003 0 00-.227-1.584zm-2.212-19.095l-6.119.13 5.158 2.938.01.551L6.1 62.267l6.083-.118.022 1.152-8.398.162-.02-.984 5.836-3.617-5.97-3.341-.019-.984 8.398-.174.023 1.151zm.424-9.748l1.026.191-1.12 5.993-8.256-1.543 1.088-5.827 1.026.192-.868 4.648 2.536.473.774-4.14 1.002.187-.773 4.14 2.666.498.899-4.812zm-4.05-10.421l7.854 2.98-.426 1.122-3.5-1.328-1.712 4.51 3.5 1.328-.425 1.122-7.854-2.98.426-1.122 3.377 1.282 1.711-4.51-3.377-1.282.426-1.122zm5.35-9.199c.458-.665 1.026-1.158 1.703-1.478a3.961 3.961 0 012.13-.383c.747.058 1.456.318 2.128.781.672.463 1.171 1.035 1.498 1.717.325.67.458 1.38.4 2.127-.064.742-.326 1.446-.784 2.111a4.28 4.28 0 01-1.57 1.41 4.077 4.077 0 01-1.967.467 4.23 4.23 0 01-2.009-.554l-.871 1.265 3.063 2.11-.674.98-6.917-4.767.674-.978 2.964 2.042.879-1.274a4.239 4.239 0 01-1.17-1.666 4.076 4.076 0 01-.226-1.977 4.262 4.262 0 01.749-1.933zm6.185 4.262c.327-.474.51-.98.55-1.516a2.94 2.94 0 00-.323-1.562 3.342 3.342 0 00-1.132-1.276 3.342 3.342 0 00-1.595-.603 2.857 2.857 0 00-1.565.262 2.96 2.96 0 00-1.231 1.046c-.322.468-.5.972-.533 1.513a2.965 2.965 0 00.313 1.556c.252.494.632.916 1.139 1.266s1.037.554 1.588.613a3.056 3.056 0 001.575-.255 3.004 3.004 0 001.215-1.044zm14.895-12.223l-3.408-5.083.306 5.927-.459.307-5.336-2.526 3.378 5.06-.958.64-4.664-6.987.818-.546 6.192 2.965-.404-6.83.819-.546 4.674 6.98-.958.64zm8.11-4.788l.396.966-5.64 2.312-3.186-7.773 5.486-2.248.395.966-4.374 1.793.978 2.387 3.897-1.597.387.944-3.897 1.597 1.028 2.51 4.53-1.857zm6.769-9.119l1.731 8.22-1.174.247-.771-3.664-4.72.995.77 3.663-1.174.247-1.73-8.22 1.174-.246.744 3.534 4.72-.994-.744-3.535 1.174-.247zm10.87-.489c.808.028 1.529.241 2.163.64a3.96 3.96 0 011.47 1.588c.353.66.516 1.398.487 2.214-.028.815-.241 1.544-.64 2.187a4.07 4.07 0 01-1.576 1.482c-.66.345-1.395.504-2.202.476a4.296 4.296 0 01-2.034-.563 4.076 4.076 0 01-1.452-1.407 4.23 4.23 0 01-.615-1.991l-1.535-.053-.13 3.717-1.187-.04.292-8.396 1.187.042-.125 3.597 1.547.054a4.24 4.24 0 01.774-1.882 4.076 4.076 0 011.545-1.255 4.261 4.261 0 012.031-.41zm-.26 7.508c.575.02 1.1-.098 1.572-.354a2.94 2.94 0 001.144-1.113 3.343 3.343 0 00.465-1.64 3.344 3.344 0 00-.35-1.67 2.857 2.857 0 00-1.064-1.178 2.96 2.96 0 00-1.544-.474 2.938 2.938 0 00-1.562.366 2.966 2.966 0 00-1.143 1.101 3.431 3.431 0 00-.453 1.642 3.415 3.415 0 00.338 1.668c.255.498.61.894 1.063 1.19a3 3 0 001.533.461zm18.549 6.077l2.478-5.596-4.848 3.425-.504-.225-.715-5.861-2.474 5.558-1.052-.468 3.416-7.674.899.4.8 6.819 5.558-3.989.9.4-3.406 7.68-1.052-.47zm8.363 4.309l-.605.851-4.969-3.531 4.867-6.847 4.831 3.434-.604.851-3.854-2.739-1.495 2.103 3.433 2.44-.59.832-3.434-2.44-1.57 2.21 3.99 2.836zm11.288.805l-6.004 5.875-.84-.858 2.677-2.618-3.374-3.448-2.676 2.618-.84-.858 6.005-5.874.84.857-2.583 2.527 3.374 3.448 2.582-2.526.84.857zm6.217 8.88c.411.696.619 1.418.625 2.167a3.956 3.956 0 01-.548 2.094c-.366.653-.901 1.187-1.603 1.602-.703.415-1.432.628-2.188.638a4.073 4.073 0 01-2.098-.531c-.646-.37-1.175-.904-1.586-1.6a4.296 4.296 0 01-.62-2.017 4.078 4.078 0 01.404-1.98 4.223 4.223 0 011.347-1.59l-.781-1.323-3.203 1.892-.604-1.023 7.232-4.273.604 1.023-3.1 1.831.788 1.333a4.24 4.24 0 012.003-.36 4.08 4.08 0 011.889.625 4.267 4.267 0 011.439 1.492zm-6.468 3.82c.293.497.674.875 1.145 1.137.48.264.999.385 1.553.364a3.343 3.343 0 001.633-.49 3.342 3.342 0 001.219-1.194c.285-.476.425-.986.42-1.53a2.96 2.96 0 00-.432-1.558 2.94 2.94 0 00-1.149-1.119 2.967 2.967 0 00-1.543-.37c-.555.02-1.097.188-1.627.5-.53.314-.939.709-1.225 1.184a3.056 3.056 0 00-.43 1.537c.002.537.147 1.05.436 1.54z" fill="#E6FB04"/></svg>
